X: 124
T:Branohm1 revisited
C:Maire Breathnach
S:IrTrad, Juergen Gier, 4/97
M:4/4
L:1/8
Q:130
K:ADor
a3 g|eA ~A2 cdec|degd BAGB|AEEE ABcd|egfa geag| \
eA ~A2 cdec|degd BAGB|AEEE cdec|d2gd BAag|\
eA ~A2 cdec|degd BAGB|AEEE FGAB|cdea geag|\
eA ~A2 cdec|degd BAGB|AEEE cdec|d2gd BAAd|\
|:edef g2af|gedc Bcdg|eaag a3 a|aged ^cdef|geaf fgef|\
gedc BAGB|  AEEE cdec|d2gd BAag:||
